logos/aws-elasticache.svg

<?xml version="1.0" encoding="UTF-8"?>
<svg width="256px" height="256px" viewBox="0 0 256 256" version="1.1" xmlns="http://www.w3.org/2000/svg" xmlns:xlink="http://www.w3.org/1999/xlink" preserveAspectRatio="xMidYMid">
    <title>AWS ElastiCache</title>
    <defs>
        <linearGradient x1="0%" y1="100%" x2="100%" y2="0%" id="linearGradient-1">
            <stop stop-color="#2E27AD" offset="0%"></stop>
            <stop stop-color="#527FFF" offset="100%"></stop>
        </linearGradient>
    </defs>
    <g>
        <rect fill="url(#linearGradient-1)" x="0" y="0" width="256" height="256"></rect>
        <path d="M163.2,196.977556 L163.2,178.249389 C155.0912,183.488284 140.4928,185.962117 126.5792,185.962117 C111.4112,185.962117 99.5872,183.315468 92.8,178.777439 L92.8,196.977556 C92.8,202.395668 105.4336,207.999396 126.5792,207.999396 C148.16,207.999396 163.2,202.190848 163.2,196.977556 L163.2,196.977556 Z M126.5792,157.505033 C111.4112,157.505033 99.5872,154.861583 92.8,150.323555 L92.8,168.597279 C92.8992,173.996188 105.5136,179.561513 126.5792,179.561513 C148.0928,179.561513 163.1008,173.788169 163.2,168.584478 L163.2,149.792305 C155.0912,155.034399 140.4928,157.505033 126.5792,157.505033 L126.5792,157.505033 Z M163.2,140.130594 L163.2,118.493352 C155.0912,123.732246 140.4928,126.20608 126.5792,126.20608 C111.4112,126.20608 99.5872,123.56263 92.8,119.024602 L92.8,140.143395 C92.8992,145.542304 105.5136,151.104429 126.5792,151.104429 C148.0928,151.104429 163.1008,145.331084 163.2,140.130594 L163.2,140.130594 Z M92.7904,108.777236 C92.7904,108.786836 92.7936,108.796437 92.7936,108.806038 L92.8,108.806038 L92.8,108.841242 C92.8992,114.240151 105.5136,119.805476 126.5792,119.805476 C150.0736,119.805476 163.1008,113.334466 163.2,108.831641 L163.2,108.806038 L163.2064,108.806038 C163.2064,108.796437 163.2096,108.786836 163.2096,108.777236 C163.2096,104.271211 150.1664,97.7489952 126.5792,97.7489952 C105.4272,97.7489952 92.7904,103.355924 92.7904,108.777236 L92.7904,108.777236 Z M169.6,108.857243 L169.6,140.076188 L169.6096,140.076188 C169.6096,140.104991 169.6,140.127393 169.6,140.156196 L169.6,168.533273 L169.6096,168.533273 C169.6096,168.562076 169.6,168.584478 169.6,168.613281 L169.6,196.977556 C169.6,208.949886 147.2992,214.4 126.5792,214.4 C102.1728,214.4 86.4,207.560955 86.4,196.977556 L86.4,168.632482 C86.4,168.597279 86.3904,168.568476 86.3904,168.533273 L86.4,168.533273 L86.4,140.175398 C86.4,140.143395 86.3904,140.111392 86.3904,140.076188 L86.4,140.076188 L86.4,108.876445 C86.4,108.841242 86.3904,108.812439 86.3904,108.777236 C86.3904,98.1906368 102.1664,91.3483914 126.5792,91.3483914 C147.3024,91.3483914 169.6096,96.8017059 169.6096,108.777236 C169.6096,108.806038 169.6,108.82844 169.6,108.857243 L169.6,108.857243 Z M214.4,67.5861498 C216.1696,67.5861498 217.6,66.1524144 217.6,64.3858477 L217.6,48.0003018 C217.6,46.230535 216.1696,44.8 214.4,44.8 L41.6,44.8 C39.8304,44.8 38.4,46.230535 38.4,48.0003018 L38.4,64.3858477 C38.4,66.1524144 39.8304,67.5861498 41.6,67.5861498 C45.5072,67.5861498 48.6848,70.7448477 48.6848,74.6268138 C48.6848,78.5087802 45.5072,81.6674781 41.6,81.6674781 C39.8304,81.6674781 38.4,83.1012134 38.4,84.8677798 L38.4,150.409963 C38.4,152.17653 39.8304,153.610265 41.6,153.610265 L73.6,153.610265 L73.6,147.209661 L57.6,147.209661 L57.6,137.608756 L73.6,137.608756 L73.6,131.208152 L54.4,131.208152 C52.6304,131.208152 51.2,132.638687 51.2,134.408454 L51.2,147.209661 L44.8,147.209661 L44.8,87.6840458 C50.6976,86.2471101 55.0848,80.9378093 55.0848,74.6268138 C55.0848,68.3126182 50.6976,63.0033174 44.8,61.5663818 L44.8,51.2006038 L211.2,51.2006038 L211.2,61.5663818 C205.3024,63.0033174 200.9152,68.3126182 200.9152,74.6268138 C200.9152,80.9378093 205.3024,86.2471101 211.2,87.6840458 L211.2,147.209661 L204.8,147.209661 L204.8,134.408454 C204.8,132.638687 203.3696,131.208152 201.6,131.208152 L182.4,131.208152 L182.4,137.608756 L198.4,137.608756 L198.4,147.209661 L182.4,147.209661 L182.4,153.610265 L214.4,153.610265 C216.1696,153.610265 217.6,152.17653 217.6,150.409963 L217.6,84.8677798 C217.6,83.1012134 216.1696,81.6674781 214.4,81.6674781 C210.4928,81.6674781 207.3152,78.5087802 207.3152,74.6268138 C207.3152,70.7448477 210.4928,67.5861498 214.4,67.5861498 L214.4,67.5861498 Z M89.6,89.6042269 L89.6,64.0018115 C89.6,62.2320445 88.1696,60.8015094 86.4,60.8015094 L67.2,60.8015094 C65.4304,60.8015094 64,62.2320445 64,64.0018115 L64,118.406944 C64,120.173511 65.4304,121.607246 67.2,121.607246 L76.8,121.607246 L76.8,115.206642 L70.4,115.206642 L70.4,67.2021133 L83.2,67.2021133 L83.2,89.6042269 L89.6,89.6042269 Z M185.6,115.206642 L182.4,115.206642 L182.4,121.607246 L188.8,121.607246 C190.5696,121.607246 192,120.173511 192,118.406944 L192,64.0018115 C192,62.2320445 190.5696,60.8015094 188.8,60.8015094 L169.6,60.8015094 C167.8304,60.8015094 166.4,62.2320445 166.4,64.0018115 L166.4,89.6042269 L172.8,89.6042269 L172.8,67.2021133 L185.6,67.2021133 L185.6,115.206642 Z M160,86.4039248 L160,64.0018115 C160,62.2320445 158.5696,60.8015094 156.8,60.8015094 L134.4,60.8015094 C132.6304,60.8015094 131.2,62.2320445 131.2,64.0018115 L131.2,83.203623 L137.6,83.203623 L137.6,67.2021133 L153.6,67.2021133 L153.6,86.4039248 L160,86.4039248 Z M118.4,83.203623 L118.4,67.2021133 L102.4,67.2021133 L102.4,86.4039248 L96,86.4039248 L96,64.0018115 C96,62.2320445 97.4304,60.8015094 99.2,60.8015094 L121.6,60.8015094 C123.3696,60.8015094 124.8,62.2320445 124.8,64.0018115 L124.8,83.203623 L118.4,83.203623 Z" fill="#FFFFFF"></path>
    </g>
</svg>

<svg preserveAspectRatio="xMidYMid" viewBox="0 0 256 256" xmlns="http://www.w3.org/2000/svg">
  <defs>
    <linearGradient id="aws-elasticache_svg__a" x1="0%" x2="100%" y1="100%" y2="0%">
      <stop offset="0%" stop-color="#2E27AD"/>
      <stop offset="100%" stop-color="#527FFF"/>
    </linearGradient>
  </defs>
  <path fill="url(#aws-elasticache_svg__a)" d="M0 0h256v256H0z"/>
  <path fill="#FFF" d="M163.2 196.978v-18.729c-8.109 5.24-22.707 7.713-36.62 7.713-15.169 0-26.993-2.647-33.78-7.185v18.2c0 5.419 12.634 11.022 33.78 11.022 21.58 0 36.62-5.808 36.62-11.021Zm-36.62-39.473c-15.169 0-26.993-2.643-33.78-7.181v18.273c.1 5.4 12.714 10.965 33.78 10.965 21.513 0 36.52-5.774 36.62-10.978v-18.792c-8.109 5.242-22.707 7.713-36.62 7.713Zm36.62-17.374v-21.638c-8.109 5.24-22.707 7.713-36.62 7.713-15.169 0-26.993-2.643-33.78-7.181v21.118c.1 5.4 12.714 10.961 33.78 10.961 21.513 0 36.52-5.773 36.62-10.973Zm-70.41-31.354c0 .01.004.02.004.029h.006v.035c.1 5.4 12.714 10.964 33.78 10.964 23.494 0 36.52-6.47 36.62-10.973v-.026h.006c0-.01.004-.02.004-.029 0-4.506-13.044-11.028-36.63-11.028-21.153 0-33.79 5.607-33.79 11.028Zm76.81.08v31.22h.01c0 .028-.01.05-.01.08v28.376h.01c0 .03-.01.051-.01.08v28.365c0 11.972-22.3 17.422-43.02 17.422-24.407 0-40.18-6.839-40.18-17.422v-28.346c0-.035-.01-.064-.01-.099h.01v-28.358c0-.032-.01-.064-.01-.099h.01v-31.2c0-.035-.01-.064-.01-.099 0-10.586 15.776-17.429 40.19-17.429 20.722 0 43.03 5.454 43.03 17.43 0 .028-.01.05-.01.08Zm44.8-41.27a3.2 3.2 0 0 0 3.2-3.201V48c0-1.77-1.43-3.2-3.2-3.2H41.6c-1.77 0-3.2 1.43-3.2 3.2v16.386a3.2 3.2 0 0 0 3.2 3.2c3.907 0 7.085 3.159 7.085 7.04 0 3.883-3.178 7.041-7.085 7.041a3.2 3.2 0 0 0-3.2 3.2v65.543a3.2 3.2 0 0 0 3.2 3.2h32v-6.4h-16v-9.601h16v-6.4H54.4c-1.77 0-3.2 1.43-3.2 3.2v12.8h-6.4V87.685c5.898-1.437 10.285-6.746 10.285-13.057 0-6.314-4.387-11.624-10.285-13.06V51.2h166.4v10.365c-5.898 1.437-10.285 6.747-10.285 13.06 0 6.312 4.387 11.621 10.285 13.058v59.526h-6.4v-12.802c0-1.77-1.43-3.2-3.2-3.2h-19.2v6.4h16v9.602h-16v6.4h32a3.2 3.2 0 0 0 3.2-3.2V84.868a3.2 3.2 0 0 0-3.2-3.2c-3.907 0-7.085-3.16-7.085-7.041 0-3.882 3.178-7.04 7.085-7.04ZM89.6 89.603V64.002c0-1.77-1.43-3.2-3.2-3.2H67.2c-1.77 0-3.2 1.43-3.2 3.2v54.405a3.2 3.2 0 0 0 3.2 3.2h9.6v-6.4h-6.4V67.202h12.8v22.402h6.4Zm96 25.603h-3.2v6.4h6.4a3.2 3.2 0 0 0 3.2-3.2V64.002c0-1.77-1.43-3.2-3.2-3.2h-19.2c-1.77 0-3.2 1.43-3.2 3.2v25.602h6.4V67.202h12.8v48.005ZM160 86.404V64.002c0-1.77-1.43-3.2-3.2-3.2h-22.4c-1.77 0-3.2 1.43-3.2 3.2v19.202h6.4V67.202h16v19.202h6.4Zm-41.6-3.2V67.202h-16v19.202H96V64.002c0-1.77 1.43-3.2 3.2-3.2h22.4c1.77 0 3.2 1.43 3.2 3.2v19.202h-6.4Z"/>
</svg>
